X: 1
T: Craven Reel
T: 8x32R 3C (Haynes, Carnforth Colln. tune "Mrs Forbes Leith")
T: cast, cross; cast up RHA; parReels3; cast cross
P: Mrs Forbes Leith
C: J.S. Skinner (1868)
C: from John Chambers
R: Reel
M: 4/4
K: Bb
|:\
"Bb"B,A,B,D FBdc | BABG FDB,D |\
[1 "Cm"C=B,CE Gced | "C7"cBAG "F7"FEDC :|\
[2 "Cm"EGcd ecgf | "F7"f=e_ec Agec |]
|:\
"Bb"B2AB dBAB | fBgB fBdB |\
[1 "F7"F2=EF AFEF | cFeF dFcF :|\
[2 "Cm"EGce "Bb"DFBd | "F7"{/e}dcBA "Bb"[B4D4] |]

